brandFactory_export/2.Regular/Maletin _2Regular.svg

<?xml version="1.0" encoding="UTF-8"?>
<svg width="24px" height="24px" viewBox="0 0 24 24" version="1.1" xmlns="http://www.w3.org/2000/svg" xmlns:xlink="http://www.w3.org/1999/xlink">
    <title>2.Regular/Maletin _2Regular</title>
    <g id="Symbols" stroke="none" stroke-width="1" fill="none" fill-rule="evenodd">
        <g id="2.Regular/Maletin-_2Regular" fill="#5CB615" fill-rule="nonzero">
            <path d="M22.1478992,12.1546218 C20.1512605,13.6201681 16.9815126,14.2857143 11.902521,14.2857143 C6.69579832,14.2857143 3.46554622,13.5831933 1.4789916,12.0168067 L1.4789916,7.78487395 C1.4789916,7.63697479 1.60672269,7.51596639 1.75462185,7.51596639 L21.8823529,7.51596639 C22.0302521,7.51596639 22.1478992,7.63697479 22.1478992,7.78487395 L22.1478992,12.1546218 Z M11.112605,17.1294118 L12.5210084,17.1294118 L12.5210084,15.7714286 L11.112605,15.7714286 L11.112605,17.1294118 Z M22.1478992,21.8588235 C22.1478992,22.0168067 22.0302521,22.1344538 21.8823529,22.1344538 L1.7512605,22.1344538 C1.60336134,22.1344538 1.47563025,22.0168067 1.47563025,21.8588235 L1.47563025,13.8184874 C3.37478992,14.9478992 5.94285714,15.5529412 9.63361345,15.7210084 L9.63361345,17.394958 C9.63361345,17.8117647 9.82184874,18.1579832 10.1478992,18.3764706 C10.3932773,18.5344538 10.7092437,18.6151261 11.092437,18.6151261 L12.5277311,18.6151261 C12.9210084,18.6151261 13.2268908,18.5344538 13.4722689,18.3764706 C13.8084034,18.1579832 13.9932773,17.8117647 13.9932773,17.394958 L13.9932773,15.7277311 C17.6638655,15.5798319 20.2352941,15.005042 22.1445378,13.912605 L22.1445378,21.8588235 L22.1478992,21.8588235 Z M7.37142857,5.6 C7.37142857,3.34117647 9.3210084,1.48571429 11.7042017,1.48571429 L11.9294118,1.48571429 C14.312605,1.48571429 16.2521008,3.34117647 16.2521008,5.6 L16.2521008,6.02689076 L7.37142857,6.02689076 L7.37142857,5.6 Z M21.8789916,6.02689076 L17.7277311,6.02689076 L17.7277311,5.6 C17.7277311,2.51764706 15.1294118,0 11.9294118,0 L11.7042017,0 C8.50420168,0 5.89579832,2.51764706 5.89579832,5.6 L5.89579832,6.02689076 L1.7512605,6.02689076 C0.786554622,6.02689076 0,6.81008403 0,7.78151261 L0,21.8588235 C0,22.8302521 0.786554622,23.6235294 1.7512605,23.6235294 L21.8789916,23.6235294 C22.8436975,23.6235294 23.6235294,22.8336134 23.6235294,21.8588235 L23.6235294,7.78151261 C23.6235294,6.81008403 22.8470588,6.02689076 21.8789916,6.02689076 Z" id="Maletin-_2Regular"></path>
        </g>
    </g>
</svg>

<svg width="24" height="24" viewBox="0 0 24 24" xmlns="http://www.w3.org/2000/svg"><path d="M22.148 12.155c-1.997 1.465-5.166 2.13-10.245 2.13-5.207 0-8.437-.702-10.424-2.268V7.785c0-.148.128-.269.276-.269h20.127c.148 0 .266.121.266.269v4.37zm-11.035 4.974h1.408v-1.358h-1.408v1.358zm11.035 4.73a.266.266 0 01-.266.275H1.752a.275.275 0 01-.276-.275v-8.04c1.899 1.129 4.467 1.734 8.158 1.902v1.674c0 .417.188.763.514.981.245.158.561.24.944.24h1.436c.393 0 .699-.082.944-.24.336-.218.521-.564.521-.981v-1.667c3.67-.148 6.242-.723 8.152-1.815v7.946h.003zM7.37 5.6c0-2.259 1.95-4.114 4.333-4.114h.225c2.384 0 4.323 1.855 4.323 4.114v.427h-8.88V5.6zm14.508.427h-4.151V5.6c0-3.082-2.599-5.6-5.799-5.6h-.225c-3.2 0-5.808 2.518-5.808 5.6v.427H1.75C.787 6.027 0 6.81 0 7.782v14.077c0 .971.787 1.765 1.751 1.765H21.88c.965 0 1.745-.79 1.745-1.765V7.782c0-.972-.777-1.755-1.745-1.755z" fill="#5CB615" fill-rule="nonzero"/></svg>
